src/images/svg/symbols/filecoin.svg

<svg width="33" height="32" viewBox="0 0 33 32" fill="none" xmlns="http://www.w3.org/2000/svg">
<path d="M0.5 16C0.5 7.16344 7.66344 0 16.5 0C25.3366 0 32.5 7.16344 32.5 16C32.5 24.8366 25.3366 32 16.5 32C7.66344 32 0.5 24.8366 0.5 16Z" fill="#0090FF"/>
<path fill-rule="evenodd" clip-rule="evenodd" d="M18.083 14.4557L17.6874 16.5657L21.4459 17.0932L21.1822 18.0823L17.4896 17.5548C17.2258 18.412 17.0939 19.3352 16.7642 20.1264C16.4345 21.0496 16.1048 21.9727 15.7092 22.8299C15.1817 23.9509 14.2585 24.7422 13.0057 24.94C12.2804 25.0719 11.4891 25.0059 10.8956 24.5444C10.6978 24.4125 10.5 24.1487 10.5 23.9509C10.5 23.6872 10.6319 23.3575 10.8297 23.2256C10.9616 23.1596 11.2913 23.2256 11.4891 23.2915C11.6869 23.4893 11.8847 23.7531 12.0166 24.0168C12.4122 24.5444 12.9398 24.6103 13.4673 24.2147C14.0607 23.6872 14.3904 22.9618 14.5882 22.2365C14.9839 20.6539 15.3795 19.1373 15.7092 17.5548V17.291L12.2144 16.7635L12.3463 15.7744L15.973 16.302L16.4345 14.2578L12.676 13.6644L12.8079 12.6094L16.6983 13.1369C16.8302 12.7412 16.8961 12.4115 17.028 12.0818C17.3577 10.8949 17.6874 9.70804 18.4786 8.65301C19.2699 7.59798 20.1931 6.93859 21.5778 7.00453C22.1712 7.00453 22.7647 7.20234 23.1603 7.66392C23.2263 7.72986 23.3582 7.86174 23.3582 7.99362C23.3582 8.25737 23.3582 8.58707 23.1603 8.78489C22.8966 8.9827 22.5669 8.91677 22.3031 8.65301C22.1053 8.45519 21.9734 8.25737 21.7756 8.05955C21.38 7.53204 20.7865 7.4661 20.3249 7.92768C19.9952 8.25737 19.6656 8.71895 19.4677 9.18052C19.0062 10.5652 18.6765 12.0159 18.2149 13.4666L21.8415 13.9941L21.5778 14.9832L18.083 14.4557Z" fill="white"/>
</svg>

<svg width="33" height="32" fill="none" xmlns="http://www.w3.org/2000/svg"><path d="M.5 16c0-8.837 7.163-16 16-16s16 7.163 16 16-7.163 16-16 16-16-7.163-16-16Z" fill="#0090FF"/><path fill-rule="evenodd" clip-rule="evenodd" d="m18.083 14.456-.396 2.11 3.759.527-.264.99-3.692-.528c-.264.857-.396 1.78-.726 2.571-.33.924-.66 1.847-1.055 2.704-.527 1.12-1.45 1.912-2.703 2.11-.726.132-1.517.066-2.11-.396-.198-.131-.396-.395-.396-.593 0-.264.132-.593.33-.725.132-.066.461 0 .66.066.197.197.395.461.527.725.395.527.923.593 1.45.198.594-.528.923-1.253 1.121-1.979.396-1.582.792-3.099 1.121-4.681v-.264l-3.495-.527.132-.99 3.627.528.461-2.044-3.758-.594.132-1.055 3.89.528c.132-.396.198-.726.33-1.055.33-1.187.66-2.374 1.45-3.429.792-1.055 1.715-1.714 3.1-1.648.593 0 1.187.197 1.582.659.066.066.198.198.198.33 0 .263 0 .593-.198.79-.263.199-.593.133-.857-.131-.198-.198-.33-.396-.527-.593-.396-.528-.99-.594-1.451-.132-.33.33-.66.79-.857 1.253-.462 1.384-.791 2.835-1.253 4.286l3.627.527-.264.99-3.495-.528Z" fill="#fff"/></svg>
